X: 1
T: Father Francis Cameron
C: John Campbell
N: BSFC 3-17
Z: 1997 by John Chambers <jc:trillian.mit.edu>
M: C|
L: 1/8
K: A
E2 \
|: "A"~A2cA "D"FDDF | "A"EA,CE "D"~F2DF |1 "A"EAcA "(F#m)"e2cA | "E7"BEGB d2cB \
                                       :|2 "A"EAce "D"dcdf | "E7"ecdB "A"A2z2 :|
cd \
|: "A"e2cA eAce | "D"f2dB "(Bm)"fBdf | "A"eagb "(F#m)"aecA |1 "E7"BEGB d2cd \
                                                         :|2 "E7"BEGB "A"A2z2 :|
